X:1
T:Title
%%score 1 { 2 | 3 }
L:1/8
Q:1/4=107
M:4/4
K:C
V:1 treble nm="Grand Piano, Soprano"
V:2 bass nm="Choir Pad, Bass"
V:3 bass 
V:1
 [CG]2 [CG]2 [DG]2 [DG]2 | [EG]3 [Ec] [EG]2 [E^G]2 | [FA]2 [FA]2 [GA]2 [GA]2 | %3
w: By~George~A.~Griswold * * *|||
 [FA]3 [Fd] [FA]2 [F^G]2 | [FG]2 [FG]2 [FA]2 [FB]2 | [Ec]4 E2 [Ac]2 | [GB]3 [GB] [^Fc]2 [FA]2 | %7
w: ||||
 [Fd]6 z2 | [EG]2 [EG]2 [FG]2 [FG]2 | [EG]3 [Ec] [EG]2 [E^G]2 | [FA]2 [FA]2 [GA]2 [GA]2 | %11
w: ||||
 [FA]3 [Fd] [FA]2 [F^G]2 | [FG]2 [FG]2 [FA]2 [FB]2 | [Ed]2 [Ec]2 D2 [_EA]2 | [EG]4 [Fd]2 [FG]2 | %15
w: ||||
 [Ec]6 [EG]2 | [Ec]4 [EG]2 [Ec]2 | [Ge]3 [Gd] [Gc]4 | [FA]4 [Fc]2 [FA]2 | [EG]6 z2 | %20
w: |||||
 [Gd]4 [Gc]2 [Gd]2 | [Ge]3 [Fd] [Ec]4 | [^Fc]4 [FB]2 [FA]2 | [Fd]6 [FG]2 | %24
w: ||||
 [Ee]2 [Gd]2 [Gc]2 [^GB]2 | [^GB]3 A A2 A2 | [Ad]2 [Ae]2 [Af]2 [Ad]2 | [Gc]3 [GB] [GB]2 G2 | %28
w: ||||
 [Gc]4 [Gd]3 [Gd] | [Ge]6 z2 | [Fd]4 [Ec]2 [FB]2 | [Ec]8 |] %32
w: ||||
V:2
 E,2 E,2 F,2 F,2 | G,3 G,[K:treble] C2 C2 | C2 C2 ^C2 C2 | D3 A, D2 D2 | D2 D2 D2 D2 | C4 C2 E2 | %6
 D3 B, A,2 C2 | B,6 z2 | C2 G,2 A,2 B,2 | C3 G,[K:treble] C2 C2 | C2 A,2 B,2 ^C2 | D3 A, D2 D2 | %12
 D2 D2 D2 D2 | C2 C2 A,2 C2 | C4[K:bass] B,2 B,2 | C6 C2 | G,4[K:treble] C2 C2 | C3 B, C4 | %18
 C4 A,2 C2 | C6 z2 | B,4 C2 B,2 | C3 B,[K:treble] C4 | A,2 E2 D2 C2 | C4[K:bass] B,2 B,2 | %24
 C2 B,2 C2[K:treble] D2 | D3 C C2 ^C2 | D2 ^C2 D2 D2 | E3 D D2[K:bass] B,2 | C4 B,3 B, | C6 z2 | %30
 A,4 G,2 G,2 | G,8 |] %32
V:3
 C,2 C,2 C,2 C,2 | C,3 C, C,2 C,2 | F,2 F,2 E,2 E,2 | D,3 D, D,2 C2 | B,2 B,2 A,2 G,2 | %5
 A,4 A,2 C,2 | D,3 D, D,2 D,2 | G,,6 z2 | C,2 C,2 C,2 C,2 | C,3 C, C,2 C,2 | F,2 F,2 E,2 E,2 | %11
 D,3 D, D,2 C2 | B,2 B,2 A,2 G,2 | A,2 A,2 F,2 ^F,2 | G,4 G,2 G,2 | C,6 C,2 | C,4 C,2 C,2 | %17
 C,3 D, E,4 | F,4 F,2 F,2 | C,6 z2 | G,2 F,2 E,2 G,2 | z2 z G, A,4 | D,4 D,2 D,2 | G,6 G,2 | %24
 C,2 D,2 E,2 E,2 | F,3 F, F,2 A,G, | F,2 E,2 D,2 F,2 | G,3 G, G,2 G,F, | E,4 G,3 G, | z8 | %30
 F,4 z2 G,,2 | C,8 |] %32

